ags/_inc/art.svg

<svg xmlns="http://www.w3.org/2000/svg"><g fill="none" stroke="#1e1e1e"><path d="m387.723 341.373c-26.183-37.733-27.723-44.664-27.723-44.664l1.54-11.552s32.343-39.274 78.548-73.157c37.227-27.3 69.455-40.103 95.477-43.242 6.274-.757 12.189-.952 17.725-.652 28.493 1.54 64.687 10.78 85.479 30.033 20.792 19.252 22.332 37.733 20.792 51.595-1.54 13.861-20.792 40.044-20.792 40.044s-167.878 83.938-174.038 83.938c-6.161 0-22.332-5.39-22.332-5.39s-16.172-4.621-26.953-7.701-26.953-17.712-27.723-19.252z" stroke-width="6"/><g stroke-width="4"><path d="m360 295.168c20.792 24.643 28.493 37.734 33.883 42.355 5.391 4.62 26.183 7.701 40.044 13.861 13.862 6.161 20.792 9.241 26.183 9.241s30.034-16.172 50.826-31.573c20.792-15.402 52.365-37.734 70.076-45.435 17.712-7.701 23.103-11.551 35.424-11.551s20.793 7.701 20.793 7.701l15.401-12.804 3.889-6.984"/><path d="m554.06 297.479c0-10.012-2.31-14.631-6.931-19.252s-58.544-41.856-57.774-42.627c.77-.77 3.099-6.658 4.639-10.509 1.54-3.85 0-4.62-4.621-4.62-4.62 0-14.631 6.16-14.631 6.16s-11.551-6.93-19.252-10.011c-7.701-3.08-11.551-4.62-11.551-4.62l-3.851-.77"/><path d="m423.791 270.343c-10.411 12.241-25.287 34.066-25.287 38.687 0 4.62.77 5.39 6.161 5.39 5.39 0 25.412-14.631 42.354-28.493 16.942-13.861 40.606-45.517 42.146-50.137 1.541-4.621 5.599-13.009 3.289-15.319s-17.542 4.549-30.803 14.632c-17.159 13.045-26.455 22.811-37.86 35.24z"/><path d="m400.814 311.34c-3.08 3.851-6.16 10.011-6.16 10.011v15.402"/></g><path d="m363.08 285.157s5.391 5.391 11.551 13.092c6.161 7.701 20.792 24.643 20.792 24.643s10.782 3.85 24.643 9.24c13.861 5.391 33.884 16.172 37.734 16.942 3.851.77 6.931-1.54 13.091-5.39 6.161-3.851 75.468-54.676 94.72-64.687s30.803-16.942 38.504-18.482 10.011-1.54 10.011-1.54"/></g></svg>

<?xml version="1.0" encoding="utf-8"?>
<svg id="svg2" version="1.0" xmlns="http://www.w3.org/2000/svg">
  <path style="fill: none; fill-rule: evenodd; stroke-width: 6; stroke-linecap: butt; stroke-linejoin: miter; stroke-miterlimit: 4; stroke-dasharray: none; stroke-opacity: 1; stroke: rgb(30, 30, 30);" d="M 387.723 341.373 C 361.54 303.64 360 296.709 360 296.709 L 361.54 285.157 C 361.54 285.157 393.883 245.883 440.088 212 C 477.315 184.7 509.543 171.897 535.565 168.758 C 541.839 168.001 547.754 167.806 553.29 168.106 C 581.783 169.646 617.977 178.886 638.769 198.139 C 659.561 217.391 661.101 235.872 659.561 249.734 C 658.021 263.595 638.769 289.778 638.769 289.778 C 638.769 289.778 470.891 373.716 464.731 373.716 C 458.57 373.716 442.399 368.326 442.399 368.326 C 442.399 368.326 426.227 363.705 415.446 360.625 C 404.665 357.545 388.493 342.913 387.723 341.373 Z" id="path3199"/>
  <path style="fill: none; fill-rule: evenodd; stroke-width: 4; stroke-linecap: butt; stroke-linejoin: miter; stroke-miterlimit: 4; stroke-dasharray: none; stroke-opacity: 1; stroke: rgb(30, 30, 30);" d="M 360 295.168 C 380.792 319.811 388.493 332.902 393.883 337.523 C 399.274 342.143 420.066 345.224 433.927 351.384 C 447.789 357.545 454.719 360.625 460.11 360.625 C 465.501 360.625 490.144 344.453 510.936 329.052 C 531.728 313.65 563.301 291.318 581.012 283.617 C 598.724 275.916 604.115 272.066 616.436 272.066 C 628.757 272.066 637.229 279.767 637.229 279.767 L 652.63 266.963 L 656.519 259.979" id="path4172"/>
  <path style="fill: none; fill-rule: evenodd; stroke-width: 4; stroke-linecap: butt; stroke-linejoin: miter; stroke-miterlimit: 4; stroke-dasharray: none; stroke-opacity: 1; stroke: rgb(30, 30, 30);" d="M 554.06 297.479 C 554.06 287.467 551.75 282.848 547.129 278.227 C 542.508 273.606 488.585 236.371 489.355 235.6 C 490.125 234.83 492.454 228.942 493.994 225.091 C 495.534 221.241 493.994 220.471 489.373 220.471 C 484.753 220.471 474.742 226.631 474.742 226.631 C 474.742 226.631 463.191 219.701 455.49 216.62 C 447.789 213.54 443.939 212 443.939 212 L 440.088 211.23" id="path4174"/>
  <path style="fill: none; fill-rule: evenodd; stroke-width: 4; stroke-linecap: butt; stroke-linejoin: miter; stroke-miterlimit: 4; stroke-dasharray: none; stroke-opacity: 1; stroke: rgb(30, 30, 30);" d="M 423.791 270.343 C 413.38 282.584 398.504 304.409 398.504 309.03 C 398.504 313.65 399.274 314.42 404.665 314.42 C 410.055 314.42 430.077 299.789 447.019 285.927 C 463.961 272.066 487.625 240.41 489.165 235.79 C 490.706 231.169 494.764 222.781 492.454 220.471 C 490.144 218.161 474.912 225.02 461.651 235.103 C 444.492 248.148 435.196 257.914 423.791 270.343 Z" id="path4176"/>
  <path style="fill: none; fill-rule: evenodd; stroke-width: 4; stroke-linecap: butt; stroke-linejoin: miter; stroke-miterlimit: 4; stroke-dasharray: none; stroke-opacity: 1; stroke: rgb(30, 30, 30);" d="M 400.814 311.34 C 397.734 315.191 394.654 321.351 394.654 321.351 L 394.654 336.753 L 394.654 336.753" id="path4180"/>
  <path style="fill: none; fill-rule: evenodd; stroke-width: 1px; stroke-linecap: butt; stroke-linejoin: miter; stroke-opacity: 1; stroke: rgb(30, 30, 30);" d="M 363.08 285.157 C 363.08 285.157 368.471 290.548 374.631 298.249 C 380.792 305.95 395.423 322.892 395.423 322.892 C 395.423 322.892 406.205 326.742 420.066 332.132 C 433.927 337.523 453.95 348.304 457.8 349.074 C 461.651 349.844 464.731 347.534 470.891 343.684 C 477.052 339.833 546.359 289.008 565.611 278.997 C 584.863 268.986 596.414 262.055 604.115 260.515 C 611.816 258.975 614.126 258.975 614.126 258.975" id="path8058"/>
</svg>
